!!!OTL: 61a. Das Schloss in Oesterreich.
!!!ODT: 15. Jh
!!!ARE: Europa, Mitteleuropa, Deutschland
!!!SCT: E0061
!!!TXL: @@DE
!!!YEM: Copyright 1995, estate of Helmut Schaffrath.
**kern	**text
*ICvox	*
*M3/4	*
*met(3)	*
*k[b-]	*
*F:	*
!LO:TX:a:t=Es leyt ein ſchloß in Öſterreich.	!
!LO:TX:a:t=Discant im handſchriftl. Berliner Ldb. Ʒ. 8. 15. Jahr	!
{4f	Es
=1	=1
2f	leit
4a	ein
=2	=2
2a	Schloß
4f	in
=3	=3
2a	Oe-
4b-	-ſter-
=4	=4
2cc}	-reich
{4f	[das
=5	=5
2cc	iſt
4cc	ſo
=6	=6
2cc	wol
4a	er-
=7	=7
(2b-	-bau-
4cc)	.
=8	=8
2a;}	-et
{4a	von
=9	=9
2b-	Ʒim-
4b-	-met
=10	=10
2b-	und
4cc	von
=11	=11
2g;	Nä-
4g	-ge-
=12	=12
2g}	-lein,
{4g	wo
=13	=13
2cc	findt
4cc	man
=14	=14
(4a	ſol-
4f)	.
4a	-che
=15	=15
(<2cc	Mau-
8b-L	.
8aJ)	.
=16	=16
2g}	-ren,
{4g	ja
=17	=17
2a	Mau-
4g	.
=18	=18
(4.f	.
8eL)	.
(8e	.
8dJ)	.
=19	=19
2f;}	-ren?]
==	==
!!!AGN: erzaehlendes Volks - Lied, Sage, Mord, Ballade ?
!!!ONB: ESAC (Essen Associative Code) Database: ERK1
!!!AMT: simple triple
!!!AIN: vox
!!!EED: Helmut Schaffrath
!!!EEV: 1.0
!!!GTL: Sagen von Mordthaten, unschuldig Gesangeg und Hinrichtungen
!!!URL-scan: https://rosdok.uni-rostock.de/mcrviewer/recordIdentifier/rosdok_ppn745146120/iview2/phys_0269.iview2?x=-4.404412318551749&y=1305.2773182607489&scale=0.6456904138606624&rotation=0&layout=singlePageLayout&logicalDiv=log_0009
!!!ENC: Anna Maria Matuszewska
!!!EEV: 2024/11/26
*-	*-
